images/logo2.svg

<svg width="44" height="34" viewBox="0 0 44 34" fill="none" xmlns="http://www.w3.org/2000/svg">
<g id="Subtract">
<path id="Shape" fill-rule="evenodd" clip-rule="evenodd" d="M9.67894 0.272954C9.32191 0.535455 9.21047 0.988704 9.21047 0.988704L7.34423 8.1677H3.9703C3.9703 8.1677 3.21237 8.22312 2.74789 8.52972C2.28341 8.83632 2.09295 9.40692 2.09295 9.40692L1.49179 11.6585H6.44684L5.85549 13.9307H2.74789C2.74789 13.9307 1.78603 13.9379 1.33714 14.2659C0.888247 14.5939 0.592237 15.2518 0.592237 15.2518L0 17.4447H4.94234L3.02597 24.858C3.02597 24.858 2.91669 25.5239 3.10413 25.7882C3.29158 26.0525 3.9703 26.1895 3.9703 26.1895H11.7241L9.8299 33.4668C9.8299 33.4668 9.80943 33.8665 10.1275 33.9622C10.4457 34.058 10.9577 33.8063 10.9577 33.8063L21.6143 26.1895H36.0339C36.0339 26.1895 36.6858 26.1659 37.1841 25.7882C37.6824 25.4105 37.7906 24.858 37.7906 24.858L43.9664 1.50929C43.9664 1.50929 44.1071 0.848309 43.6581 0.368273C43.2091 -0.111763 42.0849 0.0151951 42.0849 0.0151951H10.5345C10.5345 0.0151951 10.036 0.0104526 9.67894 0.272954ZM12.6606 2.98864L11.4448 7.62168H31.4527L30.8545 9.7564C30.8545 9.7564 30.6457 10.3833 30.1575 10.7171C29.6693 11.0508 29.0082 11.1549 28.8087 11.1549C28.6093 11.1549 10.6521 11.1549 10.6521 11.1549L10.0554 13.7269H29.795L29.2662 15.9614C29.2662 15.9614 28.9763 16.6858 28.4753 17.0446C27.9743 17.4034 27.1383 17.4854 27.1383 17.4854H9.22753L8 22.8241L16.0189 22.9424L14.9428 26.9886L19.5876 23.3763C19.5876 23.3763 19.9047 23.091 20.3688 22.9424C20.833 22.7939 21.3128 22.8241 21.3128 22.8241H34.068L38.5744 4.76344L39 3.0579L37.2914 3.05341L12.6606 2.98864Z" fill="url(#paint0_linear)"/>
</g>
<defs>
<linearGradient id="paint0_linear" x1="31.6377" y1="2.36136" x2="25.7729" y2="36.9855" gradientUnits="userSpaceOnUse">
<stop stop-color="#50CFFA"/>
<stop offset="1" stop-color="#52A2ED"/>
</linearGradient>
</defs>
</svg>

<svg width="44" height="34" fill="none" xmlns="http://www.w3.org/2000/svg"><path fill-rule="evenodd" clip-rule="evenodd" d="M9.679.273c-.357.262-.469.716-.469.716L7.344 8.168H3.97s-.758.055-1.222.362c-.465.306-.655.877-.655.877l-.601 2.252h4.955l-.592 2.272H2.748s-.962.007-1.41.335c-.45.328-.746.986-.746.986L0 17.445h4.942l-1.916 7.413s-.11.666.078.93.866.401.866.401h7.754L9.83 33.468s-.02.4.297.495c.319.096.83-.156.83-.156l10.657-7.616h14.42s.652-.024 1.15-.402c.498-.378.607-.93.607-.93L43.966 1.51s.141-.66-.308-1.14c-.449-.48-1.573-.354-1.573-.354h-31.55s-.499-.005-.856.258zm2.982 2.716l-1.216 4.633h20.008l-.598 2.134s-.21.627-.698.961c-.488.334-1.149.438-1.348.438H10.652l-.597 2.572h19.74l-.529 2.234s-.29.725-.79 1.084c-.502.358-1.338.44-1.338.44H9.228L8 22.825l8.019.117-1.076 4.047 4.645-3.613s.317-.285.78-.434c.465-.148.945-.118.945-.118h12.755l4.506-18.06L39 3.057l-1.709-.005-24.63-.064z" fill="url(#paint0_linear)"/><defs><linearGradient id="paint0_linear" x1="31.638" y1="2.361" x2="25.773" y2="36.986" gradientUnits="userSpaceOnUse"><stop stop-color="#50CFFA"/><stop offset="1" stop-color="#52A2ED"/></linearGradient></defs></svg>
